X:2
T:The Fox (II)
I:Songs Of The West S Baring Gould
M:4/4
L:1/8
K:C
G2|c2c2c2G2|E2G2G3G|A2A A A3G|E3G G2G3/2 G/2|
c2c c c2B2|A2B c d3c|c2e2g2f f|e4c4|f4d4|
B4G3G|c2c c c3B|A2B c d3d|c2e2f3f/2 f/2|e4e2
